X: 1389
T: the Flax In Bloom   #2
B: O'Neill's 1850 #1389
R: reel
%S: s:2 b:12(6+6)
N: J.O'Neill
Z: Bob Safranek, rjs@gsp.org
Z: Compacted via repeats and multiple endings [JC]
M: C|
L: 1/8
K: D
|:\
D2 (3(FED) FAAf | (3(gfe) (3(fed) edBd |\
[1 (3(ABA) (FA) dfaf | (ga)fd (ed)Bd :|\
[2 (AB)AF (AB)de | (fa)eg (fd)d2 :|
|:\
(3(fgf) df (3(efe) ce | dcdB AGF \
[1 G | DFAd FAdf | (3(gfe) (3(fed) edBd :|\
[2 A | DFAc defg | (ag)eg (fd)d2 :|
